assets/images/icons/set1/filter.svg

<svg xmlns="http://www.w3.org/2000/svg" width="28" height="28" xmlns:xlink="http://www.w3.org/1999/xlink" id="set1-filter">
  <use xlink:href="#a8" transform="translate(8.5 9)"/>
  <defs>
    <path id="a8" fill-rule="evenodd" d="M4.89948 9.80396l-1.00782-.73169c-.25244-.18287-.40313-.4751-.40362-.7804V5.5365L.222229 1.58472C-.0221558 1.28967-.0685425.894043.100769.553101.270081.212158.618286 0 1.00934 0h7.98132c.39105 0 .73926.212158.90857.553101.16927.340942.12297.736569-.12146 1.032109L6.51196 5.5365v3.48706c0 .37207-.21362.70618-.55731.87256-.14361.0697-.29779.10388-.45148.10388-.21319 0-.42529-.06628-.60369-.19604zM8.95447.959839H.969604L4.46014 5.17847v3.09778l1.00782.73156V5.17847L8.95447.959839z"/>
  </defs>
</svg>

<svg width="28" height="28" viewBox="0 0 28 28" version="1.1" xmlns="http://www.w3.org/2000/svg" xmlns:xlink="http://www.w3.org/1999/xlink">
<title>@$&#9;</title>
<desc>Created using Figma</desc>
<g id="Canvas" transform="translate(-676 -1774)">
<g id="Icon/Presta/White/Trash">
<g id="Icon/Presta/White/Filter">
<g id="filter">
<use xlink:href="#path0_fill" transform="translate(684.5 1783)" fill="#202A37"/>
</g>
</g>
</g>
</g>
<defs>
<path id="path0_fill" fill-rule="evenodd" d="M 4.89948 9.80396L 3.89166 9.07227C 3.63922 8.8894 3.48853 8.59717 3.48804 8.29187L 3.48804 5.5365L 0.222229 1.58472C -0.0221558 1.28967 -0.0685425 0.894043 0.100769 0.553101C 0.270081 0.212158 0.618286 0 1.00934 0L 8.99066 0C 9.38171 0 9.72992 0.212158 9.89923 0.553101C 10.0685 0.894043 10.0222 1.28967 9.77777 1.58521L 6.51196 5.5365L 6.51196 9.02356C 6.51196 9.39563 6.29834 9.72974 5.95465 9.89612C 5.81104 9.96582 5.65686 10 5.50317 10C 5.28998 10 5.07788 9.93372 4.89948 9.80396ZM 8.95447 0.959839L 0.969604 0.959839L 4.46014 5.17847L 4.46014 8.27625L 5.46796 9.00781L 5.46796 5.17847L 8.95447 0.959839Z"/>
</defs>
</svg>
